X:0295
M:C|
L:1/8
Q:1/2=104
K:D
   fedf  edBe   |   dBdF E3  F |DEFG   AFdA   |({G}TF2) ED  D2 :|
fe|d2a2  fgaf   |{a}g2e2 e2 fe |d2ag   fgab   |    (ag)(fe) d3 e|
   fedf  edBe   |   dBAF E3  F |DEFG   AFdA   |     F2  D2  D2 :|
   fdef  dBAd   |   AFdF E2 FA |BcdB   AFGE   |     F2  D2  D2 :|
fe|dafa  dafa   |   b2e2 egfe  |dafa   dafa   |    .b(gfe)  afed|
   gefd  ecda   |   bagf efde  |fedB   ABdF   |     A2  D2  D2 :|

